X:1
T:Pilgrimage (Wesley), 76.76 D
T:Pilgrimage (Wesley), 76.76 D
T:Samuel Sebastian Wesley (1810-1876)
T:Public Domain Courtesy of the Cyber Hymnal™
C:Samuel Sebastian Wesley (1810-1876)
Z:Public Domain
Z:Courtesy of the Cyber Hymnal™
%%score ( 1 2 ) ( 3 4 )
L:1/8
Q:1/4=110
M:4/4
K:Eb
V:1 treble 
V:2 treble 
V:3 bass 
V:4 bass 
V:1
 [B,E]2 | [B,D]2 [B,E]2 [B,F]2 [EG]2 | [EG]4 [DF]2 [B,E]2 | [B,F]2 [B,G]2 [EA]2 [Ec]2 | %4
 [EB]6 [EB]2 | [Ee]3 [Ed] [Ec]2 [EB]2 | [EB]4 [EA]2 [=EG]2 | [Fc]3 [CB] [DA]2 [EG]2 | [DF]6 [GB]2 | %9
 [GB]2 [EG]2 [FA]2 [DF]2 | [DF]4 E2 [Ac]2 | [Ac]2 [FA]2 G3 z A | F6 [B,D]2 | %13
 [B,E]2 [B,F]2 [EG]2 [FA]2 | [EG]4 [DF]2 [DB]2 | [Ee]2 [EA]2 [EG]2 [DF]2 | E6 |] %17
V:2
 x2 | x8 | x8 | x8 | x8 | x8 | x8 | x8 | x8 | x8 | x4 E2 x2 | x4 F2 =E2 x | F6 x2 | x8 | x8 | x8 | %16
 E6 |] %17
V:3
 [E,G,]2 | [F,A,]2 [E,G,]2 [D,B,]2 [E,B,]2 | [B,,B,]4 [B,,B,]2 [E,G,]2 | %3
 [D,F,]2 E,2 [C,E,]2 [A,,E,]2 | [G,,B,]6 [G,B,]2 | [G,B,]3 [G,=B,] [A,C]2 [G,E]2 | %6
 [CE]4 [CE]2 [B,C]2 | [A,C]3 [F,A,] [F,B,]2 [E,B,]2 | B,6 B,2 | [E,B,]2 [E,B,]2 [B,,B,]2 [B,,A,]2 | %10
 [B,,A,]4 [C,G,]2 [C,C]2 | [C,C]2 [C,C]2 [C,B,]3 [C,C] x | [F,A,]6 B,2 | %13
 [G,B,]2 [D,B,]2 [E,B,]2 [A,,C]2 | [B,,B,]4 [B,,B,]2 [A,,B,]2 | [G,,B,]2 [C,E]2 [B,,B,]2 (B,A,) | %16
 [E,G,]6 |] %17
V:4
 x2 | x8 | x8 | x2 E,2 x4 | x8 | x8 | x8 | x8 | B,6 B,2 | x8 | x8 | x9 | x6 B,2 | x8 | x8 | %15
 x6 B,,2 | x6 |] %17

